packages/astro-components-stencil/src/icons/headset.svg

<svg width="24" height="24" viewBox="0 0 24 24" fill="none" xmlns="http://www.w3.org/2000/svg">
<path d="M11.4 3.01999C6.62 3.32999 3 7.51999 3 12.31V19C3 20.66 4.34 22 6 22H7C8.1 22 9 21.1 9 20V16C9 14.9 8.1 14 7 14H5V12.29C5 8.44999 7.96 5.10999 11.79 4.99999C15.76 4.88999 19 8.05999 19 12V14H17C15.9 14 15 14.9 15 16V20C15 21.1 15.9 22 17 22H18C19.66 22 21 20.66 21 19V12C21 6.82999 16.64 2.67999 11.4 3.01999Z" fill="black"/>
</svg>

<svg xmlns="http://www.w3.org/2000/svg" viewBox="0 0 24 24"><g xmlns="http://www.w3.org/2000/svg" id="headset" fill-rule="nonzero">
            <path d="M11.4 3.02C6.62 3.33 3 7.52 3 12.31V19c0 1.66 1.34 3 3 3h1c1.1 0 2-.9 2-2v-4c0-1.1-.9-2-2-2H5v-1.71C5 8.45 7.96 5.11 11.79 5A6.999 6.999 0 0119 12v2h-2c-1.1 0-2 .9-2 2v4c0 1.1.9 2 2 2h1c1.66 0 3-1.34 3-3v-7c0-5.17-4.36-9.32-9.6-8.98z"/>
        </g></svg>
